assets/typer/mono.svg

<svg viewBox="0 0 24 24" xmlns="http://www.w3.org/2000/svg"><path d="m21.818 3.646h-19.636c-1.2 0-2.182.837-2.182 1.859v3.707h2.182v-3.726h19.636v13.036h-19.636v-3.735h-2.182v3.726c0 1.022.982 1.84 2.182 1.84h19.636c1.2 0 2.182-.818 2.182-1.84v-13.008c0-1.032-.982-1.859-2.182-1.859zm-10.909 12.07 4.364-3.716-4.364-3.717v2.787h-10.909v1.859h10.909z"/></svg>

<svg xmlns="http://www.w3.org/2000/svg" viewBox="0 0 24 24"><path d="M21.818 3.646H2.182C.982 3.646 0 4.483 0 5.505v3.707h2.182V5.486h19.636v13.036H2.182v-3.735H0v3.726c0 1.022.982 1.84 2.182 1.84h19.636c1.2 0 2.182-.818 2.182-1.84V5.505c0-1.032-.982-1.859-2.182-1.859m-10.909 12.07L15.273 12l-4.364-3.717v2.787H0v1.859h10.909z"/></svg>
